X:1
T:Jesus’ Love
T:Jesus’ Love
T:Pauline Frances Camp
T:Pauline Frances Camp, 1912
T:Public Domain Courtesy of the Cyber Hymnal™
C:Pauline Frances Camp
Z:Public Domain
Z:Courtesy of the Cyber Hymnal™
%%score 1 ( 2 3 )
L:1/8
Q:1/4=105
M:4/4
K:Eb
V:1 treble 
V:2 bass 
V:3 bass 
V:1
 B,2 | E2 (EF) [EG]2 ([EG][FA]) | [GB]2 [Ge]2 [GB]2 [EG]2 | [FA]2 ([FA][EG]) [DF]2 [DB]2 | %4
w: 1.~A|lit- tle * spring with- *|in my heart, Is|bub- bling * all day|
w: 2.~It|makes me * bet- ter *|ev- ery day, It|makes me * hap- py,|
w: 3.~If|you would * like to *|have one, too, Your|lit- tle * life to|
 [EG]6 B,2 | E2 (EF) [EG]2 ([EG][FA]) | [GB]2 [Ge]2 [GB]2 [EG]2 | [FA]2 ([FA][EG]) [DF]2 [DB]2 | %8
w: long; It|oft- en * trick- les *|to my tongue, In|lov- ing * words and|
w: too; It|wash- es * all my *|sin a- way, And|keeps me * kind and|
w: bless; Ask|Je- sus * if He’ll *|give you one, I|know He * will say|
 [B,E]6 z2 ||"^Refrain" [CE]2 [EA][Ac] [ce]2 [Ac]2 | [GB]2 [EG]2 [EG]2 [GB]2 | %11
w: song.|||
w: true.|This lit- tle spring is|Je- sus’ love, So|
w: yes.|||
 [FA]2 [DF]2 [DF]2 [Ac]2 | [GB]2 [EG]2 [EG]4 | [CE]2 [EA][Ac] [ce]2 [Ac]2 | [GB]2 [EG]2 [EG]4 | %15
w: ||||
w: full and free, for|you, for me;|This lit- tle spring is|Je- sus’ love,|
w: ||||
"^riten." [DB]2 [DF]2 [DF]4 | [GB]2 [EG]2 [EG]4 |] %17
w: ||
w: Je- sus’ love,|Je- sus’ love.|
w: ||
V:2
 z2 | [E,G,]2 [G,B,]2 E,2 [G,B,]2 | E,2 [G,B,E]2 [G,B,E]2 z2 | F,2 [A,B,D]2 B,,2 [A,B,]2 | %4
 (E,2 [G,B,]2 [G,B,]2) z2 | [E,G,]2 [G,B,]2 E,2 [G,B,]2 | E,2 [G,B,E]2 [G,B,E]2 z2 | %7
 F,2 [A,B,D]2 B,,2 [A,B,]2 | G,6 z2 || A,,2 [E,A,C]2 A,,2 [A,CE]2 | E,2 [G,B,]2 [G,B,]2 z2 | %11
 B,,2 [A,B,]2 [A,B,]2 z2 | E,2 [G,B,]2 ([G,B,]2 [G,B,]2) | A,,2 [E,A,C]2 A,,2 [A,CE]2 | %14
 E,2 [G,B,]2 [G,B,]2 z2 | B,,2 [A,B,]2 ([A,B,]2 [A,B,]2) | E,2 [E,B,]2 [E,B,]4 |] %17
V:3
 x2 | x8 | x8 | x8 | x8 | x8 | x8 | x8 | (E,2 B,,2 E,,2) x2 || x8 | x8 | x8 | x8 | x8 | x8 | x8 | %16
 x8 |] %17

